;FLAVOR:Marlin
;TIME:2402
;Filament used: 0.92845m
;Layer height: 0.16
;MINX:92.584
;MINY:95.61
;MINZ:0.2
;MAXX:142.416
;MAXY:139.39
;MAXZ:28.12
;Generated with Cura_SteamEngine 4.6.0
M140 S76
M105
M190 S76
M104 S217
M105
M109 S217
M82 ;absolute extrusion mode
; Ender 3 Custom Start G-code
G92 E0 ; Reset Extruder
G28 ; Home all axes
G1 Z2.0 F3000 ; Move Z Axis up little to prevent scratching of Heat Bed
G1 X0.1 Y20 Z0.3 F5000.0 ; Move to start position
G1 X0.1 Y200.0 Z0.3 F1500.0 E15 ; Draw the first line
G1 X0.4 Y200.0 Z0.3 F5000.0 ; Move to side a little
G1 X0.4 Y20 Z0.3 F1500.0 E30 ; Draw the second line
G92 E0 ; Reset Extruder
G1 Z2.0 F3000 ; Move Z Axis up little to prevent scratching of Heat Bed
G1 X5 Y20 Z0.3 F5000.0 ; Move over to prevent blob squish
G92 E0
G92 E0
G1 F2700 E-5
;LAYER_COUNT:144
;LAYER:0
M107
G0 F6000 X129.347 Y96.442 Z0.2
;TYPE:SKIRT
G1 F2700 E0
G1 F1200 X130.243 Y96.554 E0.03003
G1 X131.126 Y96.745 E0.06008
G1 X131.988 Y97.013 E0.0901
G1 X132.824 Y97.357 E0.12017
G1 X133.625 Y97.773 E0.15019
G1 X134.387 Y98.258 E0.18023
G1 X135.103 Y98.809 E0.21028
G1 X135.767 Y99.421 E0.24032
G1 X136.374 Y100.089 E0.27034
G1 X136.762 Y100.586 E0.29131
G1 X137.146 Y101.121 E0.31321
G1 X139.502 Y104.554 E0.4517
G1 X139.901 Y105.152 E0.47561
G1 X140.368 Y105.924 E0.50562
G1 X140.766 Y106.735 E0.53566
G1 X141.09 Y107.578 E0.5657
G1 X141.338 Y108.447 E0.59576
G1 X141.508 Y109.334 E0.6258
G1 X141.599 Y110.232 E0.65582
G1 X141.611 Y111.135 E0.68586
G1 X141.542 Y112.036 E0.71591
G1 X141.395 Y112.927 E0.74595
G1 X141.169 Y113.801 E0.77597
G1 X140.866 Y114.652 E0.80602
G1 X140.489 Y115.473 E0.83606
G1 X140.042 Y116.257 E0.86608
G1 X139.315 Y117.267 E0.90747
G1 X138.717 Y117.999 E0.93891
G1 X137.099 Y120.036 E1.02543
G1 X135.563 Y122.088 E1.11068
G1 X134.105 Y124.154 E1.19479
G1 X133.444 Y125.147 E1.23446
G1 X132.993 Y125.806 E1.26102
G1 X132.54 Y126.417 E1.28632
G1 X132.536 Y126.422 E1.28653
G1 X131.941 Y127.101 E1.31656
G1 X131.288 Y127.726 E1.34663
G1 X130.59 Y128.285 E1.37637
G1 X130.069 Y128.66 E1.39772
G1 X118.714 Y136.454 E1.8558
G1 X118.083 Y136.875 E1.88102
G1 X117.31 Y137.342 E1.91106
G1 X116.499 Y137.74 E1.94111
G1 X115.656 Y138.064 E1.97115
G1 X114.788 Y138.312 E2.00117
G1 X113.901 Y138.482 E2.03121
G1 X113.003 Y138.573 E2.06123
G1 X112.1 Y138.585 E2.09127
G1 X111.199 Y138.516 E2.12132
G1 X110.308 Y138.369 E2.15136
G1 X109.434 Y138.142 E2.18139
G1 X108.701 Y137.887 E2.20721
G1 X107.461 Y137.401 E2.2515
G1 X107.332 Y137.359 E2.25601
G1 X106.705 Y137.108 E2.27848
G1 X104.625 Y136.336 E2.35227
G1 X103.793 Y135.984 E2.38232
G1 X102.996 Y135.561 E2.41233
G1 X102.239 Y135.068 E2.44237
G1 X101.528 Y134.511 E2.47242
G1 X100.87 Y133.893 E2.50244
G1 X100.269 Y133.219 E2.53247
G1 X99.936 Y132.788 E2.55059
G1 X99.561 Y132.266 E2.57197
G1 X97.163 Y128.77 E2.71297
G1 X96.794 Y128.215 E2.73514
G1 X96.328 Y127.442 E2.76516
G1 X95.967 Y126.711 E2.79227
G1 X95.959 Y126.693 E2.79293
G1 X95.629 Y125.852 E2.82298
G1 X95.326 Y124.779 E2.86006
G1 X95.15 Y123.993 E2.88685
G1 X95.122 Y123.836 E2.89215
G1 X95.118 Y123.837 E2.89229
G1 X94.931 Y122.936 E2.9229
G1 X94.345 Y120.468 E3.00727
G1 X93.783 Y118.365 E3.07967
G1 X93.691 Y117.999 E3.09222
G1 X93.51 Y117.114 E3.12226
G1 X93.407 Y116.217 E3.15229
G1 X93.385 Y115.314 E3.18234
G1 X93.442 Y114.412 E3.2124
G1 X93.579 Y113.52 E3.24241
G1 X93.795 Y112.643 E3.27245
G1 X94.087 Y111.788 E3.3025
G1 X94.454 Y110.963 E3.33254
G1 X94.892 Y110.173 E3.36258
G1 X95.398 Y109.425 E3.39262
G1 X95.969 Y108.725 E3.42266
G1 X96.599 Y108.078 E3.4527
G1 X97.565 Y107.277 E3.49444
G1 X98.164 Y106.848 E3.51894
G1 X109.49 Y99.074 E3.97585
G1 X110.074 Y98.685 E3.99918
G1 X110.847 Y98.218 E4.02922
G1 X111.659 Y97.821 E4.05928
G1 X112.502 Y97.498 E4.08931
G1 X113.255 Y97.279 E4.11539
G1 X113.259 Y97.278 E4.11553
G1 X114.144 Y97.098 E4.14557
G1 X115.042 Y96.996 E4.17563
G1 X115.797 Y96.973 E4.20075
G1 X117.755 Y96.984 E4.26587
G1 X120.343 Y96.947 E4.35196
G1 X122.911 Y96.838 E4.43745
G1 X125.406 Y96.661 E4.52064
G1 X127.543 Y96.457 E4.59204
G1 X128.445 Y96.409 E4.62208
G1 X129.347 Y96.442 E4.65211
G0 F6000 X129.344 Y96.04
G1 F1200 X130.258 Y96.151 E4.68273
G1 X131.159 Y96.34 E4.71335
G1 X132.04 Y96.607 E4.74397
G1 X132.895 Y96.949 E4.77459
G1 X133.716 Y97.364 E4.80519
G1 X134.499 Y97.849 E4.83583
G1 X135.236 Y98.4 E4.86643
G1 X135.923 Y99.013 E4.89706
G1 X136.555 Y99.683 E4.92769
G1 X137.085 Y100.35 E4.95602
G1 X137.476 Y100.894 E4.97831
G1 X139.834 Y104.332 E5.11697
G1 X140.233 Y104.93 E5.14088
G1 X140.711 Y105.717 E5.1715
G1 X141.118 Y106.543 E5.20213
G1 X141.452 Y107.401 E5.23275
G1 X141.71 Y108.284 E5.26335
G1 X141.891 Y109.187 E5.29398
G1 X141.992 Y110.102 E5.3246
G1 X142.014 Y111.023 E5.35524
G1 X141.956 Y111.941 E5.38583
G1 X141.818 Y112.852 E5.41648
G1 X141.602 Y113.747 E5.4471
G1 X141.309 Y114.619 E5.4777
G1 X140.941 Y115.464 E5.50835
G1 X140.502 Y116.273 E5.53897
G1 X139.994 Y117.04 E5.56956
G1 X139.625 Y117.52 E5.5897
G1 X139.006 Y118.278 E5.62225
G1 X137.403 Y120.296 E5.70797
G1 X135.894 Y122.312 E5.79172
G1 X134.444 Y124.367 E5.87538
G1 X133.774 Y125.373 E5.91558
G1 X133.323 Y126.032 E5.94214
G1 X132.852 Y126.667 E5.96843
G1 X132.848 Y126.672 E5.96865
G1 X132.242 Y127.365 E5.99926
G1 X131.579 Y128.003 E6.02987
G1 X130.826 Y128.608 E6.06199
G1 X130.295 Y128.99 E6.08375
G1 X118.936 Y136.787 E6.54199
G1 X118.305 Y137.208 E6.56722
G1 X117.518 Y137.685 E6.59783
G1 X116.692 Y138.092 E6.62846
G1 X115.834 Y138.426 E6.65908
G1 X114.95 Y138.684 E6.68971
G1 X114.048 Y138.865 E6.72031
G1 X113.133 Y138.966 E6.75093
G1 X112.212 Y138.988 E6.78157
G1 X111.293 Y138.93 E6.81219
G1 X110.383 Y138.792 E6.84281
G1 X109.488 Y138.576 E6.87343
G1 X108.555 Y138.259 E6.9062
G1 X107.442 Y137.823 E6.94596
G1 X107.184 Y137.73 E6.95508
G1 X106.58 Y137.488 E6.97672
G1 X104.486 Y136.711 E7.05101
G1 X103.638 Y136.353 E7.08163
G1 X102.824 Y135.924 E7.11223
G1 X102.05 Y135.425 E7.14286
G1 X101.322 Y134.861 E7.17349
G1 X100.646 Y134.236 E7.20411
G1 X100.027 Y133.554 E7.23474
G1 X99.613 Y133.024 E7.25711
G1 X99.231 Y132.493 E7.27887
G1 X96.83 Y128.992 E7.42006
G1 X96.461 Y128.437 E7.44223
G1 X95.985 Y127.649 E7.47285
G1 X95.602 Y126.873 E7.50163
G1 X95.594 Y126.855 E7.50229
G1 X95.257 Y125.998 E7.53292
G1 X94.936 Y124.866 E7.57205
G1 X94.76 Y124.08 E7.59884
G1 X94.731 Y123.918 E7.60432
G1 X94.726 Y123.919 E7.60449
G1 X94.536 Y123.005 E7.63554
G1 X93.955 Y120.559 E7.71915
G1 X93.395 Y118.462 E7.79134
G1 X93.303 Y118.096 E7.8039
G1 X93.117 Y117.194 E7.83453
G1 X93.011 Y116.28 E7.86513
G1 X92.984 Y115.36 E7.89574
G1 X93.037 Y114.44 E7.92639
G1 X93.17 Y113.529 E7.95701
G1 X93.381 Y112.633 E7.98763
G1 X93.67 Y111.759 E8.01825
G1 X94.033 Y110.913 E8.04887
G1 X94.468 Y110.102 E8.07948
G1 X94.972 Y109.331 E8.11011
G1 X95.54 Y108.607 E8.14072
G1 X96.17 Y107.935 E8.17136
G1 X96.855 Y107.321 E8.20195
G1 X97.329 Y106.954 E8.22189
G1 X97.938 Y106.518 E8.2468
G1 X109.269 Y98.741 E8.7039
G1 X109.853 Y98.352 E8.72724
G1 X110.64 Y97.875 E8.75785
G1 X111.466 Y97.469 E8.78846
G1 X112.325 Y97.136 E8.8191
G1 X113.158 Y96.89 E8.84799
G1 X113.162 Y96.889 E8.84813
G1 X114.064 Y96.705 E8.87875
G1 X114.979 Y96.6 E8.90938
G1 X115.8 Y96.573 E8.9367
G1 X117.751 Y96.584 E9.00159
G1 X120.356 Y96.547 E9.08824
G1 X122.864 Y96.44 E9.17173
G1 X125.382 Y96.262 E9.25569
G1 X127.504 Y96.059 E9.32659
G1 X128.424 Y96.01 E9.35724
G1 X129.344 Y96.04 E9.38785
G0 F6000 X129.339 Y95.639
G1 F1200 X130.271 Y95.748 E9.41906
G1 X131.19 Y95.935 E9.45025
G1 X132.089 Y96.201 E9.48144
G1 X132.963 Y96.542 E9.51264
G1 X133.805 Y96.956 E9.54385
G1 X134.608 Y97.44 E9.57503
G1 X135.367 Y97.991 E9.60623
G1 X136.076 Y98.605 E9.63742
G1 X136.73 Y99.277 E9.66861
G1 X137.407 Y100.113 E9.70439
G1 X137.806 Y100.668 E9.72712
G1 X140.167 Y104.11 E9.86595
G1 X140.566 Y104.708 E9.88986
G1 X141.053 Y105.509 E9.92104
G1 X141.47 Y106.35 E9.95226
G1 X141.813 Y107.222 E9.98343
G1 X142.082 Y108.121 E10.01464
G1 X142.272 Y109.039 E10.04582
G1 X142.384 Y109.97 E10.077
G1 X142.416 Y110.908 E10.10822
G1 X142.368 Y111.844 E10.13939
G1 X142.24 Y112.774 E10.17062
G1 X142.034 Y113.688 E10.20178
G1 X141.75 Y114.582 E10.23298
G1 X141.391 Y115.449 E10.26419
G1 X140.96 Y116.282 E10.29538
G1 X140.46 Y117.075 E10.32656
G1 X139.934 Y117.773 E10.35563
G1 X139.344 Y118.495 E10.38665
G1 X137.721 Y120.539 E10.47345
G1 X136.225 Y122.537 E10.55647
G1 X134.759 Y124.614 E10.64103
G1 X134.104 Y125.599 E10.68037
G1 X133.653 Y126.258 E10.70693
G1 X133.165 Y126.917 E10.7342
G1 X133.161 Y126.922 E10.73442
G1 X132.544 Y127.628 E10.7656
G1 X131.869 Y128.28 E10.79682
G1 X131.062 Y128.931 E10.8313
G1 X130.787 Y129.132 E10.84263
G1 X130.521 Y129.32 E10.85346
G1 X119.158 Y137.119 E11.31185
G1 X118.527 Y137.54 E11.33708
G1 X117.725 Y138.027 E11.36829
G1 X116.885 Y138.444 E11.39948
G1 X116.013 Y138.787 E11.43065
G1 X115.114 Y139.056 E11.46186
G1 X114.196 Y139.246 E11.49304
G1 X113.264 Y139.358 E11.52426
G1 X112.327 Y139.39 E11.55544
G1 X111.39 Y139.342 E11.58665
G1 X110.461 Y139.214 E11.61784
G1 X109.546 Y139.007 E11.64904
G1 X108.409 Y138.632 E11.68886
G1 X107.193 Y138.155 E11.73231
G1 X107.035 Y138.101 E11.73786
G1 X106.441 Y137.863 E11.75914
G1 X104.347 Y137.086 E11.83343
G1 X103.482 Y136.722 E11.86464
G1 X102.652 Y136.287 E11.89581
G1 X101.862 Y135.782 E11.927
G1 X101.117 Y135.211 E11.95822
G1 X100.424 Y134.579 E11.98941
G1 X99.787 Y133.891 E12.0206
G1 X99.29 Y133.26 E12.04731
G1 X98.901 Y132.719 E12.06947
G1 X96.497 Y129.213 E12.21086
G1 X96.128 Y128.658 E12.23303
G1 X95.642 Y127.856 E12.26422
G1 X95.236 Y127.036 E12.29466
G1 X95.228 Y127.018 E12.29531
G1 X94.884 Y126.145 E12.32652
G1 X94.546 Y124.954 E12.3677
G1 X94.37 Y124.168 E12.39449
G1 X94.34 Y123.999 E12.4002
G1 X94.335 Y124 E12.40036
G1 X94.15 Y123.107 E12.4307
G1 X93.566 Y120.649 E12.51473
G1 X93.007 Y118.56 E12.58665
G1 X92.915 Y118.194 E12.5992
G1 X92.725 Y117.275 E12.63042
G1 X92.614 Y116.344 E12.6616
G1 X92.584 Y115.406 E12.69281
G1 X92.632 Y114.47 E12.72399
G1 X92.761 Y113.541 E12.75518
G1 X92.968 Y112.626 E12.78638
G1 X93.253 Y111.732 E12.81759
G1 X93.612 Y110.866 E12.84877
G1 X94.044 Y110.034 E12.87995
G1 X94.546 Y109.241 E12.91117
G1 X95.113 Y108.494 E12.94236
G1 X95.741 Y107.798 E12.97354
G1 X96.427 Y107.158 E13.00474
G1 X97.093 Y106.631 E13.03299
G1 X97.712 Y106.188 E13.05831
G1 X109.047 Y98.408 E13.51557
G1 X109.631 Y98.019 E13.53891
G1 X110.433 Y97.533 E13.5701
G1 X111.273 Y97.117 E13.60128
G1 X112.146 Y96.774 E13.63248
G1 X113.061 Y96.502 E13.66422
G1 X113.065 Y96.501 E13.66436
G1 X113.984 Y96.313 E13.69556
G1 X114.915 Y96.203 E13.72674
G1 X115.802 Y96.173 E13.75626
G1 X117.746 Y96.184 E13.82092
G1 X120.333 Y96.147 E13.90697
G1 X122.855 Y96.04 E13.99093
G1 X125.352 Y95.863 E14.07419
G1 X127.466 Y95.661 E14.14482
G1 X128.402 Y95.61 E14.176
G1 X129.339 Y95.639 E14.20718
G1 F2700 E9.20718
;MESH:aero_micro_harness.stl
G0 F6000 X127.817 Y106.285
G0 X128.427 Y107.173
G0 X128.276 Y107.988
;TYPE:WALL-INNER
G1 F2700 E14.20718
G1 F1200 X130.039 Y110.556 E14.31078
G1 X121.234 Y116.601 E14.66601
G1 X121.07 Y116.713 E14.67262
G1 X121.182 Y116.877 E14.67689
G1 X123.077 Y119.635 E14.78818
G1 X123.189 Y119.799 E14.79479
G1 X123.025 Y119.911 E14.79906
G1 X112.681 Y127.012 E15.21637
G1 X110.562 Y123.927 E15.34085
G1 X108.427 Y125.392 E15.42697
G1 X106.664 Y122.823 E15.5306
G1 X108.636 Y121.469 E15.61016
G1 X108.8 Y121.357 E15.61677
G1 X108.688 Y121.193 E15.62104
G1 X104.961 Y115.766 E15.84001
G1 X115.47 Y108.553 E16.26395
G1 X119.308 Y114.145 E16.48953
G1 X128.276 Y107.988 E16.85134
G0 F6000 X128.379 Y107.432
G1 F1200 X130.483 Y110.495 E16.97493
G1 X130.595 Y110.659 E16.98154
G1 X130.431 Y110.771 E16.98581
G1 X121.79 Y116.704 E17.33443
G1 X121.626 Y116.816 E17.34104
G1 X121.738 Y116.98 E17.34531
G1 X123.633 Y119.738 E17.45661
G1 X123.745 Y119.902 E17.46321
G1 X123.581 Y120.014 E17.46748
G1 X112.578 Y127.568 E17.91139
G1 X110.459 Y124.483 E18.03587
G1 X108.323 Y125.948 E18.12202
G1 X106.108 Y122.72 E18.25223
G1 X108.08 Y121.366 E18.33179
G1 X108.244 Y121.254 E18.33839
G1 X108.132 Y121.09 E18.34266
G1 X104.405 Y115.663 E18.56163
G1 X115.573 Y107.997 E19.01217
G1 X119.299 Y113.425 E19.23115
G1 X119.411 Y113.589 E19.23775
G1 X119.575 Y113.477 E19.24202
G1 X128.379 Y107.432 E19.59723
G0 F6000 X128.482 Y106.876
;TYPE:WALL-OUTER
G1 F1200 X131.151 Y110.762 E19.75402
G1 X122.182 Y116.919 E20.11586
G1 X124.301 Y120.005 E20.24037
G1 X112.475 Y128.124 E20.71748
G1 X110.356 Y125.039 E20.84196
G1 X108.22 Y126.504 E20.92811
G1 X105.552 Y122.617 E21.08491
G1 X107.688 Y121.151 E21.17108
G1 X103.849 Y115.56 E21.39665
G1 X115.676 Y107.441 E21.87379
G1 X119.514 Y113.033 E22.09937
G1 X128.482 Y106.876 E22.46118
G0 F6000 X128.412 Y107.252
G0 X128.017 Y108.3
G0 X128.175 Y108.531
;TYPE:SKIN
G1 F1200 X129.496 Y110.455 E22.5388
G1 X120.528 Y116.612 E22.90061
G1 X122.646 Y119.698 E23.0251
G1 X112.782 Y126.469 E23.42304
G1 X110.663 Y123.385 E23.54749
G1 X108.528 Y124.849 E23.63359
G1 X107.207 Y122.924 E23.71124
G1 X109.342 Y121.458 E23.79738
G1 X105.504 Y115.867 E24.02294
G1 X115.369 Y109.096 E24.4209
G1 X119.207 Y114.687 E24.64646
G1 X128.175 Y108.531 E25.00824
G0 F6000 X128.045 Y108.812
G1 F1200 X128.452 Y109.219 E25.02739
G0 F6000 X127.71 Y109.042
G1 F1200 X129.158 Y110.491 E25.09552
G0 F6000 X128.823 Y110.721
G1 F1200 X127.375 Y109.273 E25.16363
G0 F6000 X127.039 Y109.503
G1 F1200 X128.488 Y110.952 E25.23179
G0 F6000 X128.152 Y111.181
G1 F1200 X126.704 Y109.733 E25.2999
G0 F6000 X126.369 Y109.964
G1 F1200 X127.817 Y111.412 E25.36801
G0 F6000 X127.481 Y111.642
G1 F1200 X126.033 Y110.194 E25.43612
G0 F6000 X125.698 Y110.424
G1 F1200 X127.146 Y111.872 E25.50423
G0 F6000 X126.811 Y112.103
G1 F1200 X125.362 Y110.654 E25.57238
G0 F6000 X125.027 Y110.884
G1 F1200 X126.475 Y112.333 E25.64051
G0 F6000 X126.14 Y112.563
G1 F1200 X124.691 Y111.115 E25.70865
G0 F6000 X124.356 Y111.345
G1 F1200 X125.804 Y112.794 E25.77678
G0 F6000 X125.469 Y113.023
G1 F1200 X124.02 Y111.575 E25.84491
G0 F6000 X123.685 Y111.806
G1 F1200 X125.133 Y113.254 E25.91302
G0 F6000 X124.798 Y113.484
G1 F1200 X123.349 Y112.036 E25.98116
G0 F6000 X123.014 Y112.266
G1 F1200 X124.462 Y113.714 E26.04927
G0 F6000 X124.127 Y113.945
G1 F1200 X122.679 Y112.497 E26.11738
G0 F6000 X122.343 Y112.726
G1 F1200 X123.792 Y114.175 E26.18553
G0 F6000 X123.456 Y114.405
G1 F1200 X122.008 Y112.957 E26.25364
G0 F6000 X121.673 Y113.187
G1 F1200 X123.121 Y114.636 E26.32177
G0 F6000 X122.786 Y114.866
G1 F1200 X121.337 Y113.417 E26.38993
G0 F6000 X121.002 Y113.648
G1 F1200 X122.45 Y115.096 E26.45804
G0 F6000 X122.115 Y115.326
G1 F1200 X120.666 Y113.878 E26.52617
G0 F6000 X120.331 Y114.108
G1 F1200 X121.779 Y115.556 E26.59428
G0 F6000 X121.444 Y115.787
G1 F1200 X119.996 Y114.339 E26.66239
G0 F6000 X119.66 Y114.568
G1 F1200 X121.109 Y116.017 E26.73055
G0 F6000 X120.773 Y116.247
G1 F1200 X119.324 Y114.799 E26.79868
G0 F6000 X119.272 Y114.339
G0 X118.937 Y113.8
G0 X118.574 Y114.048
G1 F1200 X114.447 Y109.921 E26.9928
G0 F6000 X114.783 Y109.692
G1 F1200 X117.335 Y112.244 E27.11284
G0 F6000 X117.699 Y111.995
G0 X116.461 Y110.191
G0 X116.097 Y110.44
G1 F1200 X115.118 Y109.461 E27.15889
G0 F6000 X114.871 Y109.099
G0 X113.864 Y109.789
G0 X114.112 Y110.152
G1 F1200 X120.437 Y116.478 E27.45642
G0 F6000 X120.876 Y116.677
G0 X121.414 Y117.409
G0 X121.051 Y117.657
G1 F1200 X113.777 Y110.382 E27.79859
G0 F6000 X113.441 Y110.612
G1 F1200 X122.29 Y119.462 E28.21485
G0 F6000 X122.123 Y119.86
G1 F1200 X113.105 Y110.843 E28.639
G0 F6000 X112.77 Y111.073
G1 F1200 X121.788 Y120.091 E29.06318
G0 F6000 X121.452 Y120.321
